img/bankIcons/uralsib.svg

<svg width="54" height="54" viewBox="0 0 54 54" fill="none" xmlns="http://www.w3.org/2000/svg">
<circle cx="27" cy="27" r="27" fill="#475493"/>
<path fill-rule="evenodd" clip-rule="evenodd" d="M27.7228 21.6696C27.9886 21.6491 28.2556 21.6883 28.5041 21.7844L28.4509 14.5418H29.3388C29.2967 17.0151 29.3886 19.4888 29.614 21.9522C33.8298 22.8664 37.0751 26.2195 37.8336 30.4448C38.5921 34.67 36.714 38.9332 33.0769 41.2423C33.0236 41.1893 32.9082 41.0215 32.8017 40.9067V40.9067C29.614 36.8703 28.8327 30.8465 28.6107 25.6001C29.0527 25.7004 29.5005 25.7742 29.9514 25.8209C30.6208 30.2874 32.6292 34.4492 35.714 37.7624C38.0534 34.955 37.861 30.838 35.2701 28.2586C33.8831 26.7784 32.0991 25.7241 30.129 25.2203C29.1962 24.9935 28.2391 24.8808 27.2788 24.8846C26.3189 24.8873 25.3626 24.9999 24.4286 25.2203C20.2909 26.2713 17.2187 29.4775 17.2187 33.2931C17.2504 34.9127 17.7975 36.4805 18.7814 37.7712C21.8905 34.458 23.8993 30.2735 24.5351 25.7855C24.9791 25.7325 25.4231 25.6795 25.9292 25.5647C25.7072 30.82 24.9258 36.7819 21.7382 40.8184V40.8007C21.6396 40.9579 21.5267 41.1058 21.4008 41.2423C17.7631 38.9202 15.8961 34.642 16.6748 30.4127C17.4535 26.1835 20.7235 22.8412 24.9525 21.9522C25.2277 16.538 25.1744 14.5418 25.1744 14.5418H26.0624L26.0091 21.7844C26.2408 21.6954 26.4896 21.6592 26.7372 21.6784V11H27.6873V21.6696H27.7228ZM27.7761 25.5383C27.8915 30.5639 28.22 36.8703 29.8982 41.1275C30.0669 41.5692 30.3422 42.0638 30.573 42.5054C29.4975 42.8089 28.3876 42.9751 27.27 43C26.1546 42.9829 25.0466 42.8166 23.9758 42.5054C24.251 41.949 24.4819 41.4543 24.7039 40.9597C26.2666 36.7555 26.7194 30.5109 26.7727 25.5383H27.7761V25.5383Z" fill="white"/>
</svg>

<svg width="54" height="54" viewBox="0 0 54 54" fill="none" xmlns="http://www.w3.org/2000/svg"><circle cx="27" cy="27" r="27" fill="#475493"/><path fill-rule="evenodd" clip-rule="evenodd" d="M27.723 21.67c.266-.02.533.018.781.114l-.053-7.242h.888c-.042 2.473.05 4.947.275 7.41a10.624 10.624 0 018.22 8.493 10.577 10.577 0 01-4.757 10.797c-.053-.053-.169-.22-.275-.335-3.188-4.037-3.97-10.06-4.191-15.307.442.1.89.174 1.34.22a22.396 22.396 0 005.763 11.942 7.039 7.039 0 00-.444-9.503 10.666 10.666 0 00-5.141-3.039c-.933-.226-1.89-.34-2.85-.335-.96.002-1.916.115-2.85.335-4.138 1.051-7.21 4.258-7.21 8.073a7.632 7.632 0 001.562 4.478 22.032 22.032 0 005.754-11.986 12.93 12.93 0 001.394-.22c-.222 5.255-1.003 11.217-4.19 15.253v-.017a3.011 3.011 0 01-.338.441 10.576 10.576 0 01-4.726-10.83c.778-4.229 4.049-7.57 8.277-8.46.276-5.414.222-7.41.222-7.41h.888l-.053 7.242a1.67 1.67 0 01.728-.106V11h.95v10.67h.036zm.053 3.868c.116 5.026.444 11.332 2.122 15.59.169.441.444.936.675 1.377-1.076.304-2.185.47-3.303.495a12.49 12.49 0 01-3.294-.495c.275-.556.506-1.05.728-1.545 1.563-4.205 2.015-10.45 2.069-15.422h1.003z" fill="#fff"/></svg>6.6748 30.4127C17.4535 26.1835 20.7235 22.8412 24.9525 21.9522C25.2277 16.538 25.1744 14.5418 25.1744 14.5418H26.0624L26.0091 21.7844C26.2408 21.6954 26.4896 21.6592 26.7372 21.6784V11H27.6873V21.6696H27.7228ZM27.7761 25.5383C27.8915 30.5639 28.22 36.8703 29.8982 41.1275C30.0669 41.5692 30.3422 42.0638 30.573 42.5054C29.4975 42.8089 28.3876 42.9751 27.27 43C26.1546 42.9829 25.0466 42.8166 23.9758 42.5054C24.251 41.949 24.4819 41.4543 24.7039 40.9597C26.2666 36.7555 26.7194 30.5109 26.7727 25.5383H27.7761V25.5383Z" fill="white"/>
</svg>
